X:1
T:Sugarfoot Rag
C:Hank Garland, 1949
M:4/4
L:1/8
K:G
|ef
|:"Part A""G"gfga gedg|"F"=fefg fdc2|1 "G"^ABde A=AGE|"D7"DEGA "G"G2ef:|2 "G"cd2e dBAG|"D7"DE "G"GA|| 
|G2G2
|:"G""^Part B"[g2B2][g2B2] AGDG|DEGB AGEG|^ABd2 A=AGE|1 "D7"DEGA "G"G2G2:|2 "D7"DEGA "G"G4||
